assets/ai/ai-nakala-square.svg

<svg xmlns="http://www.w3.org/2000/svg" width="100%" height="100%" viewBox="-75.52 -43.52 599.04 599.04"><path d="M 48 32 C 21.5 32 0 53.5 0 80 L 0 432 C 0 458.5 21.5 480 48 480 L 400 480 C 426.5 480 448 458.5 448 432 L 448 80 C 448 53.5 426.5 32 400 32 L 48 32 z M 111.91992 151.06055 C 138.40911 150.7199 163.02379 167.41374 178.87891 198.41992 A 88.610631 88.610631 0 0 1 227.75391 183.72266 A 88.610631 88.610631 0 0 1 270.95312 194.96875 C 294.06317 153.07778 333.83475 139.44792 371.36719 161.52539 C 347.40329 158.19269 331.88281 159.97656 331.88281 159.97656 C 331.88281 159.97656 361.76263 170.58217 384 203.69336 C 371.45433 194.39925 353.08789 186.27148 353.08789 186.27148 C 353.08789 186.27148 363.54086 197.47943 367.79688 210.75781 C 370.43344 218.98369 369.45003 239.71088 352.24023 249.88672 C 340.26937 256.96485 325.60903 257.1494 314.13477 252.58984 A 88.610631 88.610631 0 0 1 316.36328 272.33398 A 88.610631 88.610631 0 0 1 227.75391 360.94531 A 88.610631 88.610631 0 0 1 139.14062 272.33398 A 88.610631 88.610631 0 0 1 142.64453 247.67188 C 130.83634 256.71202 111.09229 258.9526 95.759766 249.88672 C 78.550049 239.71088 77.566566 218.98369 80.203125 210.75781 C 84.459117 197.47943 94.912109 186.27148 94.912109 186.27148 C 94.912109 186.27148 76.545596 194.39925 64 203.69336 C 86.237269 170.58217 116.11719 159.97656 116.11719 159.97656 C 116.11719 159.97656 100.5966 158.19269 76.632812 161.52539 C 88.368754 154.62199 100.32362 151.20968 111.91992 151.06055 z M 227.75391 206.32422 A 66.010326 66.010326 0 0 0 161.74414 272.33398 A 66.010326 66.010326 0 0 0 227.75391 338.34375 A 66.010326 66.010326 0 0 0 293.76367 272.33398 A 66.010326 66.010326 0 0 0 227.75391 206.32422 z M 227.75391 236.89453 A 35.441025 35.441025 0 0 1 263.19336 272.33398 A 35.441025 35.441025 0 0 1 227.75391 307.77539 A 35.441025 35.441025 0 0 1 192.3125 272.33398 A 35.441025 35.441025 0 0 1 227.75391 236.89453 z M 238.3418 242.93359 A 13.51707 13.51707 0 0 0 224.98633 256.45117 A 13.51707 13.51707 0 0 0 238.50391 269.9668 A 13.51707 13.51707 0 0 0 252.01953 256.45117 A 13.51707 13.51707 0 0 0 238.50391 242.93359 A 13.51707 13.51707 0 0 0 238.3418 242.93359 z"/></svg>

<svg xmlns="http://www.w3.org/2000/svg" width="100%" height="100%" viewBox="-75.52 -43.52 599.04 599.04"><path d="M48 32C21.5 32 0 53.5 0 80v352c0 26.5 21.5 48 48 48h352c26.5 0 48-21.5 48-48V80c0-26.5-21.5-48-48-48H48zm63.92 119.06c26.49-.34 51.104 16.354 66.959 47.36a88.61 88.61 0 0148.875-14.697 88.61 88.61 0 0143.2 11.246c23.11-41.891 62.88-55.521 100.413-33.444-23.964-3.332-39.484-1.548-39.484-1.548s29.88 10.605 52.117 43.716c-12.546-9.294-30.912-17.422-30.912-17.422s10.453 11.208 14.709 24.487c2.636 8.226 1.653 28.953-15.557 39.129-11.97 7.078-26.631 7.262-38.105 2.703a88.61 88.61 0 012.228 19.744 88.61 88.61 0 01-88.61 88.611 88.61 88.61 0 01-88.612-88.611 88.61 88.61 0 013.504-24.662c-11.809 9.04-31.553 11.28-46.885 2.215-17.21-10.176-18.193-30.903-15.557-39.13 4.256-13.278 14.71-24.486 14.71-24.486S76.545 194.4 64 203.693c22.237-33.11 52.117-43.716 52.117-43.716s-15.52-1.784-39.484 1.548c11.736-6.903 23.69-10.315 35.287-10.464zm115.834 55.264a66.01 66.01 0 00-66.01 66.01 66.01 66.01 0 0066.01 66.01 66.01 66.01 0 0066.01-66.01 66.01 66.01 0 00-66.01-66.01zm0 30.57a35.441 35.441 0 0135.44 35.44 35.441 35.441 0 01-35.44 35.441 35.441 35.441 0 01-35.441-35.441 35.441 35.441 0 0135.44-35.44zm10.588 6.04a13.517 13.517 0 00-13.356 13.517 13.517 13.517 0 0013.518 13.516 13.517 13.517 0 0013.516-13.516 13.517 13.517 0 00-13.516-13.517 13.517 13.517 0 00-.162 0z"/></svg>
